src/icons/svg/email.svg

<svg class="icon" width="200px" height="200.00px" viewBox="0 0 1024 1024" version="1.1" xmlns="http://www.w3.org/2000/svg"><path  d="M874.666667 375.189333V746.666667a64 64 0 0 1-64 64H213.333333a64 64 0 0 1-64-64V375.189333l64 54.250667V746.666667h597.333334V429.44l64-54.250667zM810.666667 213.333333a64.789333 64.789333 0 0 1 22.826666 4.181334 63.616 63.616 0 0 1 26.794667 19.413333 64.32 64.32 0 0 1 9.344 15.466667c2.773333 6.570667 4.48 13.696 4.906667 21.184L874.666667 277.333333v21.333334L553.536 572.586667a64 64 0 0 1-79.893333 2.538666l-3.178667-2.56L149.333333 298.666667v-21.333334a63.786667 63.786667 0 0 1 35.136-57.130666A63.872 63.872 0 0 1 213.333333 213.333333h597.333334z m-9.6 64h-578.133334L512 523.882667 801.066667 277.333333z" /></svg>

<svg  xmlns="http://www.w3.org/2000/svg" viewBox="0 0 1024 1024"><path  d="M874.667 375.19v371.477a64 64 0 0 1-64 64H213.333a64 64 0 0 1-64-64V375.189l64 54.251v317.227h597.334V429.44l64-54.25zm-64-161.857a64.79 64.79 0 0 1 22.826 4.182 63.616 63.616 0 0 1 26.795 19.413 64.32 64.32 0 0 1 9.344 15.467 63.676 63.676 0 0 1 4.907 21.184l.128 3.754v21.334l-321.131 273.92a64 64 0 0 1-79.893 2.538l-3.179-2.56-321.13-273.898v-21.334a63.787 63.787 0 0 1 35.135-57.13 63.872 63.872 0 0 1 28.864-6.87h597.334zm-9.6 64H222.933L512 523.883l289.067-246.55z"/></svg>
